X: 553
T: Pan qinglang
L: 1/8
M: 2/4
K: F
c d f d [I:setbarnb 1]| 
c3f | 
A2A G | 
F4 | 
c2c2 | 
d2c2 | 
F G A G/ A/ | 
c3A | 
F DC2 | 
c2A2 | 
G F D F | 
C4 | 
F G A G/ A/ | 
c A G F | 
F DC2 | 
c2A2 | 
G F D F | 
C4 |]

@@@ Tune index: 9427
